src/assets/icons/pro/pro-badge.svg

<svg width="60" height="20" viewBox="0 0 60 20" fill="none" xmlns="http://www.w3.org/2000/svg">
<path fill-rule="evenodd" clip-rule="evenodd" d="M0 10C0 4.47715 4.47715 0 10 0L50 0C55.5229 0 60 4.47715 60 10C60 15.5228 55.5229 20 50 20H10C4.47715 20 0 15.5228 0 10Z" fill="#385EF9"/>
<path fill-rule="evenodd" clip-rule="evenodd" d="M51.4917 13.5843C52.4494 12.6404 52.9282 11.4457 52.9282 10C52.9282 8.55432 52.4494 7.35958 51.4917 6.41575C50.5341 5.47191 49.3186 5 47.8453 5C46.372 5 45.1566 5.47191 44.1989 6.41575C43.2413 7.35958 42.7624 8.55432 42.7624 10C42.7624 11.4457 43.2413 12.6404 44.1989 13.5843C45.1566 14.5281 46.372 15 47.8453 15C49.3186 15 50.5341 14.5281 51.4917 13.5843ZM31.5055 10.7804C32.1225 10.2048 32.4309 9.42907 32.4309 8.45301C32.4309 7.47694 32.1202 6.69886 31.4986 6.11875C30.8771 5.53864 30.0506 5.24859 29.0193 5.24859H25V14.7513H26.8508V11.6436H29.0193C30.0599 11.6436 30.8886 11.3559 31.5055 10.7804ZM26.8508 9.91711V6.97512H28.8398C29.3831 6.97512 29.7974 7.10173 30.0829 7.35496C30.3683 7.60818 30.511 7.9742 30.511 8.45302C30.511 8.92264 30.3683 9.28405 30.0829 9.53728C29.7974 9.7905 29.3831 9.91711 28.8398 9.91711H26.8508ZM40.9531 14.7928C40.4742 14.7928 40.0553 14.6869 39.6962 14.4751C39.337 14.2633 38.9779 13.8996 38.6188 13.3839L37.3205 11.5193H35.6906V14.7513H33.8398V5.24859H37.8177C38.8398 5.24859 39.6777 5.54094 40.3315 6.12566C40.9853 6.71037 41.3122 7.47234 41.3122 8.41157C41.3122 9.09297 41.1418 9.68228 40.8011 10.1795C40.4604 10.6768 39.977 11.0451 39.3509 11.2845L40.1934 12.4862C40.3407 12.6979 40.4973 12.8499 40.663 12.942C40.8288 13.034 41.059 13.0801 41.3536 13.0801C41.3812 13.0801 41.4089 13.0778 41.4365 13.0732C41.4641 13.0686 41.4917 13.0663 41.5194 13.0663V14.7513C41.4549 14.7698 41.3743 14.7813 41.2776 14.7859C41.181 14.7905 41.0728 14.7928 40.9531 14.7928ZM35.6906 9.83424V6.97512H37.7625C38.2965 6.97512 38.6994 7.09713 38.971 7.34114C39.2427 7.58516 39.3785 7.94197 39.3785 8.41159C39.3785 8.8812 39.2427 9.23571 38.971 9.47512C38.6994 9.71453 38.2965 9.83424 37.7625 9.83424H35.6906ZM50.9944 10C50.9944 9.02395 50.7067 8.23437 50.1312 7.63123C49.5557 7.0281 48.7937 6.72654 47.8453 6.72654C46.8968 6.72654 46.1349 7.0281 45.5594 7.63123C44.9838 8.23437 44.6961 9.02395 44.6961 10C44.6961 10.9761 44.9838 11.7657 45.5594 12.3688C46.1349 12.9719 46.8968 13.2735 47.8453 13.2735C48.7937 13.2735 49.5557 12.9719 50.1312 12.3688C50.7067 11.7657 50.9944 10.9761 50.9944 10Z" fill="white"/>
<g clip-path="url(#clip0)">
<path fill-rule="evenodd" clip-rule="evenodd" d="M14.7592 4.07327L16.0331 5.35517C16.1103 5.43287 16.2261 5.47171 16.3805 5.47171H18.1562C18.4264 5.47171 18.6581 5.70479 18.6581 5.97671V7.76361C18.6581 7.88015 18.6967 8.03553 18.8125 8.11322L20.0864 9.35628C20.2794 9.55051 20.2794 9.86128 20.0864 10.0555L18.8125 11.2986C18.6967 11.4151 18.6581 11.5316 18.6581 11.687V13.4739C18.6581 13.7459 18.4264 13.9789 18.1562 13.9789H16.3805C16.2647 13.9789 16.1103 14.0178 16.0331 14.1343L14.7592 15.4162C14.5662 15.6104 14.2573 15.6104 14.0643 15.4162L12.7904 14.1343C12.7132 14.0566 12.5588 13.9789 12.443 13.9789H10.6673C10.397 13.9789 10.1654 13.7459 10.1654 13.4739V11.687C10.1654 11.5705 10.1268 11.4151 10.011 11.3374L8.73711 10.0944C8.54409 9.90012 8.54409 9.58936 8.73711 9.39513L10.011 8.15207C10.1268 7.99668 10.1654 7.88015 10.1654 7.76361V5.97671C10.1654 5.70479 10.397 5.47171 10.6673 5.47171H12.443C12.5588 5.47171 12.7132 5.43287 12.7904 5.31633L14.0643 4.03442C14.2573 3.87904 14.5662 3.87904 14.7592 4.07327Z" fill="white"/>
</g>
<path fill-rule="evenodd" clip-rule="evenodd" d="M17.082 7.481C17.3239 7.69787 17.3442 8.06977 17.1273 8.31166L13.9233 11.8855C13.7094 12.1241 13.3438 12.1475 13.1011 11.9382L11.75 10.7729C11.504 10.5607 11.4766 10.1892 11.6888 9.94322C11.901 9.69722 12.2724 9.6698 12.5184 9.88199L13.4325 10.6705L16.2514 7.52632C16.4682 7.28443 16.8401 7.26414 17.082 7.481Z" fill="#385EF9"/>
<defs>
<clipPath id="clip0">
<rect width="12.3529" height="12.3529" fill="white" transform="translate(8.23529 3.52942)"/>
</clipPath>
</defs>
</svg>

<svg width="60" height="20" fill="none" xmlns="http://www.w3.org/2000/svg"><path fill-rule="evenodd" clip-rule="evenodd" d="M0 10C0 4.477 4.477 0 10 0h40c5.523 0 10 4.477 10 10s-4.477 10-10 10H10C4.477 20 0 15.523 0 10z" fill="#385EF9"/><path fill-rule="evenodd" clip-rule="evenodd" d="M51.492 13.584c.957-.944 1.436-2.138 1.436-3.584 0-1.446-.479-2.64-1.436-3.584C50.534 5.472 49.319 5 47.845 5c-1.473 0-2.688.472-3.646 1.416-.958.944-1.437 2.138-1.437 3.584 0 1.446.48 2.64 1.437 3.584.958.944 2.173 1.416 3.646 1.416 1.474 0 2.69-.472 3.647-1.416zM31.506 10.78c.617-.575.925-1.35.925-2.327 0-.976-.31-1.754-.932-2.334-.622-.58-1.448-.87-2.48-.87H25v9.502h1.85v-3.107h2.17c1.04 0 1.869-.288 2.486-.864zm-4.655-.863V6.975h1.989c.543 0 .957.127 1.243.38.285.253.428.62.428 1.098 0 .47-.143.831-.428 1.084-.286.253-.7.38-1.243.38h-1.99zm14.102 4.876c-.479 0-.898-.106-1.257-.318-.359-.212-.718-.575-1.077-1.091l-1.298-1.865h-1.63v3.232H33.84V5.25h3.978c1.022 0 1.86.292 2.514.877.653.584.98 1.346.98 2.286 0 .681-.17 1.27-.51 1.768-.342.497-.825.865-1.451 1.104l.842 1.202c.148.212.304.364.47.456.166.092.396.138.69.138a.504.504 0 00.084-.007.503.503 0 01.082-.007v1.685a1.08 1.08 0 01-.241.035 6.88 6.88 0 01-.325.007zm-5.262-4.959V6.975h2.072c.534 0 .936.122 1.208.366.272.244.408.601.408 1.07 0 .47-.136.825-.408 1.064-.272.24-.674.36-1.208.36H35.69zM50.994 10c0-.976-.287-1.766-.863-2.369-.575-.603-1.337-.904-2.286-.904-.948 0-1.71.301-2.286.904-.575.603-.863 1.393-.863 2.369 0 .976.288 1.766.863 2.369.576.603 1.338.905 2.286.905.949 0 1.71-.302 2.286-.905.576-.603.863-1.393.863-2.369z" fill="#fff"/><g clip-path="url(#clip0)"><path fill-rule="evenodd" clip-rule="evenodd" d="M14.76 4.073l1.273 1.282c.077.078.193.117.348.117h1.775c.27 0 .502.233.502.505v1.787c0 .116.039.272.154.35l1.274 1.242a.495.495 0 010 .7l-1.273 1.243a.5.5 0 00-.155.388v1.787a.513.513 0 01-.502.505h-1.775c-.116 0-.27.039-.348.155l-1.274 1.282a.487.487 0 01-.695 0l-1.274-1.282a.573.573 0 00-.347-.155h-1.776a.513.513 0 01-.502-.505v-1.787c0-.117-.038-.272-.154-.35l-1.274-1.243a.495.495 0 010-.699l1.274-1.243c.116-.155.154-.272.154-.388V5.977c0-.272.232-.505.502-.505h1.776c.116 0 .27-.04.347-.156l1.274-1.282a.528.528 0 01.695.04z" fill="#fff"/></g><path fill-rule="evenodd" clip-rule="evenodd" d="M17.082 7.481a.588.588 0 01.045.83l-3.204 3.575a.588.588 0 01-.822.052l-1.351-1.165a.588.588 0 01.768-.891l.914.789 2.82-3.145a.588.588 0 01.83-.045z" fill="#385EF9"/><defs><clipPath id="clip0"><path fill="#fff" transform="translate(8.235 3.53)" d="M0 0h12.353v12.353H0z"/></clipPath></defs></svg>
